static/logos/launchNotes-glyph-color.svg

<svg width="100" height="46" viewBox="0 0 100 46" fill="none" xmlns="http://www.w3.org/2000/svg">
<g clip-path="url(#clip0_1_2214)">
<path d="M0 3.69814V2.0755H9.96226V3.69814L7.4717 3.92456C7.4717 5.1321 7.43396 6.41512 7.43396 7.66041C7.43396 8.90569 7.43396 10.151 7.43396 11.434V13.0189C7.43396 14.1132 7.43396 15.2453 7.43396 16.4906C7.43396 17.6981 7.4717 18.9434 7.4717 20.1887H12.6792L13.5094 15.9623H15.9623L15.6604 21.8868H0V20.2642L2.26415 20.0378C2.30189 18.8302 2.33962 17.6227 2.33962 16.4151V7.69814C2.33962 6.45286 2.33962 5.20758 2.26415 3.96229L0 3.69814Z" fill="#292D33"/>
<path d="M28.7568 22.3396C26.9832 22.3396 25.8889 21.6227 25.436 20.151C24.87 20.7547 24.2662 21.283 23.587 21.7736C22.8323 22.1887 22.0021 22.4151 21.1341 22.3773C20.0775 22.4151 19.0587 22.0755 18.2662 21.3962C17.5492 20.717 17.1719 19.7736 17.1719 18.5283C17.1719 17.849 17.3228 17.1698 17.6624 16.5661C18.0775 15.8868 18.6813 15.3207 19.3983 14.9434C20.5304 14.3396 21.7379 13.849 22.9832 13.5094C23.2851 13.3962 23.6247 13.3207 24.0398 13.2075L25.2851 12.9057V11.9245C25.2851 10.5661 25.1341 9.66036 24.7945 9.16979C24.4549 8.67922 23.8134 8.45281 22.8323 8.45281H22.4549C22.304 8.45281 22.1907 8.45281 22.0398 8.49055L21.8889 9.8113C21.8889 10.7924 21.6247 11.5095 21.2096 11.9623C20.8323 12.3774 20.2662 12.6415 19.7002 12.6415C18.6058 12.6415 17.9266 12.1509 17.6624 11.1321C17.7379 9.88677 18.3794 8.8679 19.5492 8.07545C20.719 7.283 22.4172 6.90564 24.6058 6.90564C26.5304 6.90564 27.9266 7.35847 28.7568 8.22639C29.587 9.09432 30.0021 10.5661 30.0021 12.6038V19.3585C30.0021 19.9245 30.2285 20.2264 30.6813 20.2264C30.8323 20.2264 30.9832 20.1887 31.1341 20.0755C31.3228 19.9245 31.4738 19.7358 31.587 19.5471L32.4172 20.0755C32.1153 20.7925 31.6247 21.3962 30.9832 21.8113C30.2662 22.1887 29.5115 22.3774 28.7568 22.3396ZM21.6247 17.7358C21.587 18.3396 21.7756 18.9434 22.153 19.3962C22.4926 19.7359 22.9455 19.9622 23.436 19.9245C23.6624 19.9245 23.9266 19.8868 24.1153 19.7736C24.5304 19.5849 24.9077 19.3585 25.2473 19.0943V14.1887C24.9832 14.2641 24.719 14.3396 24.4926 14.4528C24.2662 14.566 24.0398 14.6415 23.8511 14.717C23.2096 14.9811 22.6436 15.3585 22.2285 15.9245C21.8134 16.4151 21.587 17.0566 21.6247 17.7358Z" fill="#292D33"/>
<path d="M42.9838 22.2642L42.7951 19.7359C42.1913 20.5283 41.4366 21.2076 40.6064 21.6981C39.7762 22.151 38.8706 22.4151 37.9272 22.3774C36.7574 22.4151 35.6253 21.9623 34.8328 21.1321C34.0404 20.3019 33.663 18.9057 33.7008 16.9057L33.814 9.54718L32.0781 9.16982V7.92454L38.2291 7.05661L38.7196 7.39623L38.4932 11.6226V16.9811C38.4932 17.8868 38.6442 18.566 38.946 18.9057C39.2479 19.283 39.663 19.4717 40.1536 19.434C40.6064 19.434 41.0593 19.283 41.4744 19.0566C41.9272 18.7925 42.38 18.4528 42.7574 18.0755L42.8706 9.54718L41.2102 9.16982V7.96227L47.2102 6.98114L47.7008 7.32076L47.6253 11.5849V20.151L49.2102 20.4906V21.9245L42.9838 22.2642Z" fill="#292D33"/>
<path d="M50.3032 21.9245V20.4906L51.9259 20.1132C51.9636 19.3962 51.9636 18.6038 51.9636 17.7736V13.8113C51.9636 12.9811 51.9636 12.3396 51.9636 11.8868C51.9636 11.434 51.9259 10.9057 51.8881 10.3019L50.0391 10.0377V8.86792L56.0013 6.83018L56.5296 7.16981L56.7183 9.35849C57.3598 8.56603 58.1523 7.88679 59.0579 7.39622C59.8504 7.01886 60.6806 6.83018 61.5485 6.83018C62.756 6.79245 63.8881 7.24528 64.7183 8.1132C65.5108 8.98113 65.9259 10.2641 65.9259 12V17.7736C65.9259 18.6038 65.9259 19.3962 65.9636 20.1509L67.473 20.4528V21.8868H59.473V20.4528L61.0579 20.1132C61.0957 19.3585 61.0957 18.566 61.0957 17.7358V12.4151C61.0957 11.434 60.9825 10.7547 60.7183 10.3774C60.4164 9.96226 59.9636 9.73584 59.4353 9.77358C58.6428 9.77358 57.7749 10.1509 56.8315 10.8679V17.8113C56.8315 18.6792 56.8315 19.4717 56.8692 20.2264L58.3032 20.5283V21.9623L50.3032 21.9245Z" fill="#292D33"/>
<path d="M75.5814 22.3773C74.2607 22.3773 72.9777 22.1132 71.8079 21.5094C70.6758 20.9434 69.7324 20.0377 69.0909 18.9434C68.3739 17.6604 67.9965 16.1887 68.072 14.6792C68.0343 13.2075 68.4116 11.7358 69.1663 10.4528C69.8833 9.32073 70.9022 8.37734 72.1097 7.77356C73.3928 7.13205 74.789 6.83017 76.2229 6.8679C77.2041 6.83017 78.1852 7.05658 79.0531 7.47167C79.8456 7.84903 80.5248 8.37734 81.0154 9.05658C81.506 9.69809 81.7701 10.4528 81.8456 11.2453C81.6569 12.1887 80.7512 12.8679 79.8079 12.8302C79.2418 12.8302 78.6758 12.6038 78.2607 12.1887C77.8078 11.7736 77.5814 11.0188 77.506 9.96224L77.2796 8.45281C77.2041 8.41507 77.0909 8.41507 77.0154 8.41507H76.7135C76.1097 8.41507 75.506 8.64149 75.0154 8.98111C74.3739 9.43394 73.9211 10.0754 73.6192 10.7924C73.2041 11.849 73.0154 12.9434 73.0909 14.0754C73.0909 15.8113 73.4682 17.1321 74.2607 18.0754C75.0154 19.0188 76.1475 19.5094 77.355 19.4717C77.9965 19.4717 78.6758 19.3207 79.2418 19.0188C79.8079 18.6792 80.2984 18.2641 80.7135 17.8113L81.7701 18.7547C81.2418 19.8868 80.4116 20.8679 79.3173 21.4717C78.1852 22.1132 76.9022 22.4151 75.5814 22.3773Z" fill="#292D33"/>
<path d="M82.6405 21.9245V20.4906L84.2631 20.1132C84.2631 19.3962 84.3009 18.6038 84.3009 17.7736V2.9434L82.4141 2.64151V1.35849L88.6782 0L89.1688 0.301887L89.0178 4.5283V9.39623C89.6593 8.60377 90.4518 7.92453 91.3575 7.43396C92.1122 7.0566 92.9801 6.86792 93.8103 6.86792C95.0178 6.83019 96.1877 7.28302 97.0178 8.15094C97.8103 9.01887 98.2254 10.3019 98.2254 12.0377V17.8113C98.2254 18.6415 98.2254 19.434 98.2631 20.1887L99.7726 20.4906V21.9245H91.848V20.4906L93.4329 20.1509C93.4707 19.3962 93.4707 18.6038 93.4707 17.7736V12.4151C93.4707 11.434 93.3575 10.7547 93.131 10.3774C92.8292 9.96226 92.3386 9.73585 91.848 9.81132C91.3952 9.81132 90.9424 9.96226 90.565 10.1887C90.0744 10.4528 89.5839 10.7925 89.1688 11.2075V17.8113C89.1688 18.6792 89.1688 19.4717 89.2065 20.2264L90.6405 20.5283V21.9623L82.6405 21.9245Z" fill="#292D33"/>
<path d="M12.3396 26.5283V24.9056H20.2641V26.5283L17.6981 26.9056V44.7924H15.1698L4.5283 30.0754V42.717L7.96226 43.0943V44.717H0V43.0943L2.56603 42.717V27.3207L2.15094 26.7547L0.0754649 26.5283V24.9056H6.90566L15.7736 37.0943V26.9056L12.3396 26.5283Z" fill="#292D33"/>
<path d="M28.3429 45.2076C26.9089 45.2453 25.5127 44.9057 24.2674 44.2264C23.1354 43.5849 22.2297 42.6415 21.6259 41.4717C20.9844 40.1887 20.6448 38.7925 20.6825 37.3962C20.6448 36 20.9844 34.566 21.7014 33.3585C22.3429 32.2264 23.324 31.283 24.4561 30.6792C25.6637 30.0377 26.9844 29.6981 28.3429 29.6981C29.7014 29.6981 31.0222 30 32.2297 30.6415C33.3995 31.2453 34.3429 32.1886 34.9844 33.3207C35.7014 34.566 36.041 36 36.0033 37.3962C36.041 38.8302 35.7014 40.2264 35.0599 41.5094C34.4561 42.6415 33.5505 43.5849 32.4184 44.2264C31.1731 44.9057 29.7769 45.2453 28.3429 45.2076ZM28.3429 43.6226C29.1731 43.6226 29.8146 43.1321 30.2297 42.151C30.6448 41.1698 30.8712 39.6226 30.8712 37.4717C30.8712 35.3207 30.6448 33.7358 30.2297 32.7547C29.8146 31.7736 29.1731 31.283 28.3429 31.283C27.475 31.283 26.8335 31.7736 26.4184 32.7547C26.0033 33.7358 25.7769 35.3207 25.7769 37.4717C25.7769 39.6226 26.0033 41.1698 26.4184 42.151C26.8335 43.1321 27.475 43.6226 28.3429 43.6226Z" fill="#292D33"/>
<path d="M42.6001 45.2075C41.2416 45.2075 40.185 44.8679 39.4303 44.2264C38.6756 43.5849 38.2982 42.4905 38.2982 41.0188C38.2982 40.4905 38.2982 40 38.2982 39.5471C38.2982 39.0943 38.2982 38.566 38.2982 38V32.2264H36.3359V30.4528L38.5624 30.1509L40.0718 25.9245H43.1661L43.0907 30.1887H46.2605V32.2264H43.0907V40.6792C43.0529 41.2453 43.2039 41.7736 43.5435 42.2264C43.8076 42.566 44.2227 42.717 44.6378 42.717C45.2416 42.6792 45.8076 42.4528 46.2605 42.0754L47.0152 42.7924C46.6378 43.5471 46.0718 44.1509 45.3548 44.566C44.4869 45.0188 43.5435 45.2453 42.6001 45.2075Z" fill="#292D33"/>
<path d="M54.567 45.2075C53.2085 45.2453 51.8877 44.9057 50.6802 44.3019C49.5481 43.6981 48.6424 42.7924 48.0387 41.6604C47.3594 40.3774 47.0198 38.9434 47.0575 37.5094C47.0198 36 47.3971 34.5283 48.1896 33.2453C48.9066 32.1132 49.9254 31.2075 51.0953 30.6038C52.2273 30.0377 53.5104 29.6981 54.7934 29.6981C55.9632 29.6604 57.1707 29.9623 58.1896 30.5283C59.0953 31.0566 59.85 31.849 60.3028 32.7924C60.7934 33.8113 61.0575 34.9434 61.0198 36.0755C61.0198 36.6038 60.9821 37.1698 60.8311 37.6604H52.0764C52.1896 39.2453 52.6047 40.4151 53.3971 41.1698C54.1141 41.8868 55.0953 42.3019 56.1141 42.3019C56.8311 42.3396 57.5858 42.1509 58.2273 41.849C58.7934 41.5472 59.3217 41.1698 59.7745 40.6792L60.8311 41.6604C60.2651 42.7924 59.3971 43.6981 58.3028 44.3019C57.2085 44.9057 55.8877 45.2075 54.567 45.2075ZM54.5292 31.2453C53.9632 31.2453 53.4349 31.5849 52.982 32.3019C52.5292 33.0189 52.2273 34.2641 52.1896 36.1132H54.7556C55.4726 36.1132 55.9632 35.9623 56.2273 35.6604C56.5292 35.2453 56.6424 34.717 56.6047 34.1887C56.6047 33.1698 56.416 32.4528 56.0009 31.9623C55.6236 31.5094 55.0953 31.2453 54.5292 31.2453Z" fill="#292D33"/>
<path d="M67.7765 45.2075C65.9275 45.2075 64.1162 44.7547 62.5312 43.8113L62.6067 40.1132H65.0218L65.5501 43.0943C65.8897 43.2453 66.2671 43.3207 66.6445 43.3962C67.0218 43.4717 67.4369 43.5094 67.8143 43.5094C68.4935 43.5471 69.2105 43.3962 69.8143 43.0566C70.2671 42.7547 70.5313 42.2641 70.4935 41.6981C70.4935 41.2453 70.3048 40.8302 69.9652 40.4905C69.6256 40.1509 68.9463 39.849 67.9275 39.5471L66.3048 39.0566C65.2482 38.7924 64.3048 38.2264 63.5879 37.3962C62.9463 36.6038 62.6067 35.5849 62.6445 34.566C62.6445 33.2075 63.2482 31.9245 64.3048 31.0566C65.3992 30.1132 66.9463 29.6226 68.9841 29.6226C69.8143 29.6226 70.6445 29.7358 71.4369 29.9245C72.2294 30.1509 72.9841 30.4528 73.7388 30.8302L73.5124 34.1132H71.0973L70.4935 31.5094C69.9652 31.3207 69.3992 31.2453 68.8331 31.283C68.2671 31.2453 67.6633 31.3962 67.1728 31.6981C66.7577 32 66.5312 32.4528 66.569 32.9811C66.569 33.3962 66.7577 33.8113 67.0596 34.0755C67.3992 34.3773 68.0784 34.717 69.0973 35.0188L70.569 35.4339C72.0029 35.849 73.0218 36.4528 73.6633 37.2453C74.3048 38.0754 74.6445 39.0943 74.6067 40.1132C74.6822 41.5849 73.9652 42.9811 72.7954 43.8113C71.5879 44.7547 69.8897 45.2075 67.7765 45.2075Z" fill="#292D33"/>
</g>
<defs>
<clipPath id="clip0_1_2214">
<rect width="100" height="45.283" fill="white"/>
</clipPath>
</defs>
</svg>

<svg xmlns="http://www.w3.org/2000/svg" width="139.13" height="64" fill="none" viewBox="0 0 100 46"><g fill="#292D33" clip-path="url(#a)"><path d="M0 3.698V2.075h9.962v1.623l-2.49.227c0 1.207-.038 2.49-.038 3.735v8.831c0 1.207.038 2.452.038 3.698h5.207l.83-4.227h2.453l-.302 5.925H0v-1.623l2.264-.226c.038-1.208.076-2.415.076-3.623V7.698c0-1.245 0-2.49-.076-3.736L0 3.698ZM28.757 22.34c-1.774 0-2.868-.717-3.321-2.189a12.663 12.663 0 0 1-1.849 1.623c-.755.415-1.585.641-2.453.603a4.152 4.152 0 0 1-2.868-.98c-.717-.68-1.094-1.623-1.094-2.869 0-.679.15-1.358.49-1.962a4.49 4.49 0 0 1 1.736-1.623 17.348 17.348 0 0 1 3.585-1.434c.302-.113.642-.188 1.057-.302l1.245-.301v-.982c0-1.358-.15-2.264-.49-2.754-.34-.49-.982-.717-1.963-.717h-.377c-.151 0-.264 0-.415.038l-.151 1.32c0 .981-.264 1.698-.68 2.151-.377.415-.943.68-1.509.68-1.094 0-1.773-.491-2.038-1.51.076-1.245.717-2.264 1.887-3.057 1.17-.792 2.868-1.17 5.057-1.17 1.924 0 3.32.453 4.15 1.321.831.868 1.246 2.34 1.246 4.378v6.755c0 .565.227.867.68.867a.725.725 0 0 0 .452-.15c.189-.152.34-.34.453-.529l.83.529a3.806 3.806 0 0 1-1.434 1.735c-.717.378-1.471.566-2.226.529Zm-7.132-4.604c-.038.604.15 1.207.528 1.66.34.34.793.566 1.283.528.226 0 .49-.037.68-.15a5.627 5.627 0 0 0 1.131-.68V14.19c-.264.075-.528.15-.754.264-.227.113-.453.189-.642.264-.641.264-1.207.641-1.622 1.207a2.575 2.575 0 0 0-.604 1.812ZM42.984 22.264l-.189-2.528a7.732 7.732 0 0 1-2.189 1.962c-.83.453-1.735.717-2.679.68a4.098 4.098 0 0 1-3.094-1.246c-.793-.83-1.17-2.226-1.132-4.226l.113-7.359-1.736-.377V7.925l6.151-.868.49.34-.226 4.226v5.358c0 .906.151 1.585.453 1.925.302.377.717.566 1.208.528.452 0 .905-.151 1.32-.377a6.432 6.432 0 0 0 1.283-.981l.114-8.529-1.66-.377V7.962l6-.98.49.339-.076 4.264v8.566l1.585.34v1.433l-6.226.34ZM50.303 21.924v-1.433l1.623-.378c.038-.717.038-1.51.038-2.34v-5.886c0-.453-.038-.981-.076-1.585l-1.849-.264v-1.17l5.962-2.038.529.34.188 2.188a7.826 7.826 0 0 1 2.34-1.962 5.725 5.725 0 0 1 2.49-.566 4.157 4.157 0 0 1 3.17 1.283c.793.868 1.208 2.151 1.208 3.887v5.774c0 .83 0 1.622.038 2.377l1.509.302v1.434h-8v-1.434l1.585-.34c.038-.755.038-1.547.038-2.377v-5.32c0-.982-.113-1.661-.378-2.039a1.419 1.419 0 0 0-1.283-.603c-.792 0-1.66.377-2.604 1.094v6.943c0 .868 0 1.66.038 2.415l1.434.302v1.434l-8-.038ZM75.581 22.377c-1.32 0-2.603-.264-3.773-.868a6.593 6.593 0 0 1-2.717-2.566 7.935 7.935 0 0 1-1.019-4.264 7.954 7.954 0 0 1 1.094-4.226 7.46 7.46 0 0 1 2.944-2.68 8.629 8.629 0 0 1 4.113-.905 6.071 6.071 0 0 1 2.83.604c.793.377 1.472.905 1.962 1.585.491.641.755 1.396.83 2.188-.188.944-1.094 1.623-2.037 1.585a2.202 2.202 0 0 1-1.547-.641c-.453-.415-.68-1.17-.755-2.227l-.226-1.51c-.076-.037-.19-.037-.265-.037h-.302c-.603 0-1.207.226-1.698.566-.641.453-1.094 1.094-1.396 1.811a7.519 7.519 0 0 0-.528 3.283c0 1.736.377 3.057 1.17 4 .754.944 1.886 1.434 3.094 1.397.641 0 1.32-.151 1.887-.453a6.623 6.623 0 0 0 1.471-1.208l1.057.944c-.528 1.132-1.358 2.113-2.453 2.717a7.122 7.122 0 0 1-3.736.905ZM82.64 21.924v-1.433l1.623-.378c0-.717.038-1.51.038-2.34V2.944l-1.887-.301V1.358L88.678 0l.49.302-.15 4.226v4.868a7.825 7.825 0 0 1 2.34-1.962 5.563 5.563 0 0 1 2.452-.566c1.208-.038 2.378.415 3.208 1.283.792.868 1.207 2.15 1.207 3.887v5.773c0 .83 0 1.623.038 2.378l1.51.302v1.433h-7.925v-1.433l1.585-.34c.038-.755.038-1.547.038-2.377v-5.359c0-.981-.114-1.66-.34-2.038-.302-.415-.792-.641-1.283-.566-.453 0-.906.151-1.283.378-.49.264-.981.604-1.396 1.018v6.604c0 .868 0 1.66.038 2.415l1.434.302v1.434l-8-.038ZM12.34 26.528v-1.622h7.924v1.622l-2.566.378v17.886H15.17L4.528 30.075v12.642l3.434.377v1.623H0v-1.623l2.566-.377V27.321l-.415-.566-2.076-.227v-1.622h6.83l8.869 12.188V26.906l-3.434-.378ZM28.343 45.208a8.041 8.041 0 0 1-4.076-.982 6.64 6.64 0 0 1-2.641-2.754c-.642-1.283-.981-2.68-.944-4.076-.037-1.396.302-2.83 1.02-4.038a6.964 6.964 0 0 1 2.754-2.679 8.253 8.253 0 0 1 3.887-.98c1.358 0 2.68.301 3.887.942a6.729 6.729 0 0 1 2.754 2.68 7.796 7.796 0 0 1 1.02 4.075c.037 1.434-.303 2.83-.944 4.113a6.776 6.776 0 0 1-2.642 2.717 8.041 8.041 0 0 1-4.075.982Zm0-1.585c.83 0 1.472-.49 1.887-1.472.415-.981.641-2.528.641-4.68 0-2.15-.226-3.735-.641-4.716-.415-.981-1.057-1.472-1.887-1.472-.868 0-1.51.49-1.925 1.472-.415.98-.641 2.566-.641 4.717 0 2.15.226 3.698.641 4.679.416.981 1.057 1.472 1.925 1.472ZM42.6 45.208c-1.358 0-2.415-.34-3.17-.982-.754-.641-1.132-1.736-1.132-3.207v-8.793h-1.962v-1.773l2.226-.302 1.51-4.227h3.094l-.075 4.265h3.17v2.037h-3.17v8.453a2.272 2.272 0 0 0 .453 1.547c.264.34.679.491 1.094.491a2.803 2.803 0 0 0 1.623-.642l.754.717a4.189 4.189 0 0 1-1.66 1.774 5.48 5.48 0 0 1-2.755.642ZM54.567 45.208c-1.358.037-2.68-.302-3.887-.906a6.366 6.366 0 0 1-2.641-2.642 8.416 8.416 0 0 1-.982-4.15 7.701 7.701 0 0 1 1.133-4.265 7.52 7.52 0 0 1 2.905-2.641c1.132-.566 2.415-.906 3.698-.906a6.664 6.664 0 0 1 3.397.83 5.32 5.32 0 0 1 2.113 2.264c.49 1.02.755 2.151.717 3.283 0 .529-.038 1.095-.189 1.585h-8.755c.114 1.585.529 2.755 1.321 3.51a3.858 3.858 0 0 0 2.717 1.132c.717.038 1.472-.151 2.113-.453a5.769 5.769 0 0 0 1.548-1.17l1.056.981a6.107 6.107 0 0 1-2.528 2.642c-1.094.604-2.415.906-3.736.906Zm-.038-13.963c-.566 0-1.094.34-1.547 1.057-.453.717-.755 1.962-.792 3.811h2.566c.717 0 1.207-.15 1.471-.453.302-.415.415-.943.378-1.471 0-1.02-.189-1.736-.604-2.227-.377-.453-.906-.717-1.472-.717ZM67.776 45.208c-1.849 0-3.66-.453-5.245-1.397l.076-3.698h2.415l.528 2.981c.34.151.717.227 1.094.302a6.14 6.14 0 0 0 1.17.113 3.716 3.716 0 0 0 2-.452c.453-.302.717-.793.68-1.359 0-.453-.19-.868-.529-1.208-.34-.34-1.019-.641-2.038-.943l-1.622-.49c-1.057-.265-2-.83-2.717-1.66a4.277 4.277 0 0 1-.944-2.831c0-1.358.604-2.642 1.66-3.51 1.095-.943 2.642-1.433 4.68-1.433.83 0 1.66.113 2.453.301.792.227 1.547.529 2.302.906l-.227 3.283h-2.415l-.603-2.604a4.123 4.123 0 0 0-1.66-.226 2.872 2.872 0 0 0-1.661.415 1.419 1.419 0 0 0-.604 1.283c0 .415.189.83.49 1.094.34.302 1.02.642 2.038.944l1.472.415c1.434.415 2.453 1.019 3.094 1.811.642.83.981 1.85.944 2.868.075 1.472-.642 2.868-1.812 3.698-1.207.944-2.905 1.397-5.019 1.397Z"/></g><defs><clipPath id="a"><path fill="#fff" d="M0 0h100v45.283H0z"/></clipPath></defs></svg>
